!!!COM: Anon.
!!!OTL: Murasaki
!!!OTC: Japanese Popular Music: A Collection of The Popular Music of Japan Rendered in to the Staff notation.
!!!CNT: Nippon, Japanese
!!!TXO: Nippon, Japan
!!!OCY: Nippon, Japan
!!!ODT: <1892///
!!!PSR: S. Miki & Co.
!!!PSP: Osaka, Nippon
!!!PDT: 1892///
!!!PPE: Y Nagai & K. Kobatake
!!!PED: Revised Second Edition
!!!PPG: page 85
!! Moderato
**kern	**silbe
*ICstr	*Lnippon
*ICvox	*
*Ikoto	*
*Ivox	*
*clefG2	*
*k[]	*
*M4/4	*
=1-	=1-
4.e	.
8B4B	.
8e	.
8B	.
=2	=2
4E 4e	.
8r	.
8d	.
2e	.
=3	=3
(4e	.
8d	.
8e)	.
4F	.
8f	.
8a	.
=4	=4
(8.b	.
16a	.
8f)	.
8a	.
4e	.
4ee	.
=5	=5
(4cc	.
4b	.
4a)	.
8r	.
8a	.
=6	=6
(4b	.
4a	.
4b)	.
8E	.
8d	.
=7	=7
(4e	.
4f	.
8a)	.
8f	.
8.e	.
16c	.
=8	=8
(8B	.
4B	.
8a)	.
4b	.
4ee	.
=9	=9
4.cc	.
8a	.
8.b	.
16a	.
8f	.
8e	.
=10	=10
8r	.
16f	.
16a	.
8b	.
8cc	.
8E	.
16e	.
16e	.
8e	.
8e	.
=11	=11
4B	.
4e	.
2f	.
=12	=12
4r	.
(4f	.
2f)	.
=13	=13
(4a	.
4f)	.
2f	.
=14	=14
(4e	.
8d	.
8e)	.
4e	.
8f	.
8a	.
=15	=15
(4b	.
4cc)	.
(4E	.
4e)	.
=16	=16
8r	.
(8e	.
4c)	.
4B	.
4ee	.
=17	=17
4cc	.
4b	.
4a	.
8r	.
8a	.
=18	=18
4b	.
(4a	.
4b)	.
4cc	.
=19	=19
4ee	.
(4cc	.
4b)	.
4a	.
=20	=20
4f	.
4a	.
2b	.
=21	=21
4aa	.
4bb	.
2ccc	.
=22	=22
4bb	.
4aa	.
4ff	.
(4ee	.
=23	=23
4cc)	.
4ee	.
2cc	.
=24	=24
(4b	.
4cc)	.
(4.e	.
8c)	.
=25	=25
2B	.
4.f	.
8a	.
=26	=26
4.b	.
8a	.
8b	.
8b	.
8e	.
8b	.
=27	=27
4b	.
4dd	.
8ee	.
8ee	.
8B	.
8e	.
=28	=28
4ee	.
4r	.
4ee	.
4cc	.
=29	=29
4B	.
8ee	.
8ee	.
8cc	.
8ee	.
8cc	.
8b	.
=30	=30
8e	.
8a	.
8b	.
8cc	.
8b	.
8a	.
8f	.
8e	.
=31	=31
8r	.
8c	.
8r	.
8B	.
8r	.
8d	.
8e	.
8f	.
=32	=32
4e	.
4B	.
4B	.
8a	.
8f	.
=33	=33
4e	.
4B	.
4E 4e	.
4r	.
==	==
*-	*-
!!!ENC: David Huron
!!!RDT: 2000/1/30
!!!EEV: Release 1.0
!!!ELF: 23/28
!!!YER: 2000/2/1
!!!YEM: Copyright David Huron, 2000
!!!YEN: United States of America
